src/renderer/assets/svg/icon-stake.svg

<svg xmlns="http://www.w3.org/2000/svg" width="25" height="24" fill="none" viewBox="0 0 25 24"><path fill="#616B75" d="M19.226 14.641c-.843 1.363-3.535 2.361-6.726 2.361s-5.883-.998-6.727-2.361c-.178-.29-.273-.135-.273.007v2.002c0 1.94 3.134 3.95 7 3.95s7-2.01 7-3.949v-2.002c0-.143-.096-.298-.274-.008m.011-5.116c-.83 1.205-3.532 2.09-6.737 2.09s-5.908-.885-6.738-2.09c-.171-.248-.262-.113-.262-.002v2.357c0 1.762 3.134 3.189 7 3.189s7-1.428 7-3.189V9.523c0-.111-.092-.246-.263.002M12.5 3c-3.866 0-7 1.18-7 2.633v1.26c0 1.541 3.134 2.791 7 2.791s7-1.25 7-2.791v-1.26C19.5 4.18 16.366 3 12.5 3"/></svg>

<svg id="stake_icon" width="25" height="24" viewBox="0 0 25 24" fill="none" xmlns="http://www.w3.org/2000/svg">
<path d="M19.226 14.641C18.383 16.004 15.691 17.002 12.5 17.002C9.309 17.002 6.617 16.004 5.773 14.641C5.595 14.351 5.5 14.506 5.5 14.648V16.65C5.5 18.59 8.634 20.6 12.5 20.6C16.366 20.6 19.5 18.59 19.5 16.651V14.649C19.5 14.506 19.404 14.351 19.226 14.641ZM19.237 9.525C18.407 10.73 15.705 11.615 12.5 11.615C9.295 11.615 6.592 10.73 5.762 9.525C5.591 9.277 5.5 9.412 5.5 9.523V11.88C5.5 13.642 8.634 15.069 12.5 15.069C16.366 15.069 19.5 13.641 19.5 11.88V9.523C19.5 9.412 19.408 9.277 19.237 9.525ZM12.5 3C8.634 3 5.5 4.18 5.5 5.633V6.893C5.5 8.434 8.634 9.684 12.5 9.684C16.366 9.684 19.5 8.434 19.5 6.893V5.633C19.5 4.18 16.366 3 12.5 3Z" fill="#616B75"/>
</svg>
